icons/24x24_buoy_outline.svg

<svg xmlns="http://www.w3.org/2000/svg" width="24" height="24" viewBox="0 0 24 24">
  <path fill-rule="evenodd" d="M9.4131691,17.415258 L7.93606531,18.8923618 C9.12709181,19.5961412 10.5163828,20 12,20 C13.4836172,20 14.8729082,19.5961412 16.0639347,18.8923618 L14.5868309,17.415258 C13.8035604,17.7900957 12.9262931,18 12,18 C11.0737069,18 10.1964396,17.7900957 9.4131691,17.415258 Z M17.415258,9.4131691 C17.7900957,10.1964396 18,11.0737069 18,12 C18,12.9262931 17.7900957,13.8035604 17.415258,14.5868309 L18.8923618,16.0639347 C19.5961412,14.8729082 20,13.4836172 20,12 C20,10.5163828 19.5961412,9.12709181 18.8923618,7.93606531 L17.415258,9.4131691 Z M6.58474197,14.5868309 C6.20990431,13.8035604 6,12.9262931 6,12 C6,11.0737069 6.20990431,10.1964396 6.58474197,9.4131691 L5.10763818,7.93606531 C4.40385879,9.12709181 4,10.5163828 4,12 C4,13.4836172 4.40385879,14.8729082 5.10763818,16.0639347 L6.58474197,14.5868309 Z M14.5868309,6.58474197 L16.0639347,5.10763818 C14.8729082,4.40385879 13.4836172,4 12,4 C10.5163828,4 9.12709181,4.40385879 7.93606531,5.10763818 L9.4131691,6.58474197 C10.1964396,6.20990431 11.0737069,6 12,6 C12.9262931,6 13.8035604,6.20990431 14.5868309,6.58474197 Z M12,22 C6.4771525,22 2,17.5228475 2,12 C2,6.4771525 6.4771525,2 12,2 C17.5228475,2 22,6.4771525 22,12 C22,17.5228475 17.5228475,22 12,22 Z M12,16 C14.209139,16 16,14.209139 16,12 C16,9.790861 14.209139,8 12,8 C9.790861,8 8,9.790861 8,12 C8,14.209139 9.790861,16 12,16 Z"/>
</svg>

<svg width="24" height="24" fill="none" xmlns="http://www.w3.org/2000/svg"><path fill-rule="evenodd" clip-rule="evenodd" d="m9.413 17.415-1.477 1.477A7.964 7.964 0 0 0 12 20a7.964 7.964 0 0 0 4.064-1.108l-1.477-1.477A5.977 5.977 0 0 1 12 18c-.926 0-1.804-.21-2.587-.585Zm8.002-8.002c.375.783.585 1.66.585 2.587 0 .926-.21 1.804-.585 2.587l1.477 1.477A7.964 7.964 0 0 0 20 12a7.964 7.964 0 0 0-1.108-4.064l-1.477 1.477Zm-10.83 5.174A5.976 5.976 0 0 1 6 12c0-.926.21-1.804.585-2.587L5.108 7.936A7.963 7.963 0 0 0 4 12a7.96 7.96 0 0 0 1.108 4.064l1.477-1.477Zm8.002-8.002 1.477-1.477A7.963 7.963 0 0 0 12 4a7.963 7.963 0 0 0-4.064 1.108l1.477 1.477A5.976 5.976 0 0 1 12 6c.926 0 1.804.21 2.587.585ZM12 22C6.477 22 2 17.523 2 12S6.477 2 12 2s10 4.477 10 10-4.477 10-10 10Zm0-6a4 4 0 1 0 0-8 4 4 0 0 0 0 8Z" fill="#000"/></svg>
